X: 12109
T: Evalina
R: mazurka
M: 3/4
K: Eminor
P:A
|:"Em"B c/B/ ^AB cB|E2E B, CB,|EF GA Bc|"B"B>A F4|
A B/A/ ^GA BA|F2F B, CB,|^DE FG AB|"Em"G>F E4|
B c/B/ ^AB cB|E2E B, CB,|EF G^G AB|"Am"c>B A4|
A/B/A/G/ FG A2|"Em"G/A/G/F/ EF G2|"B"F/G/F/E/ ^DE FG|"Em"E2 E2 z2:|
P:B
|:"D"DE FG A^A|"G"B2BA G2|"D"A2AG F2|"G"B2BA G2|
"D"DE FG A^A|"G"B2BA G2|"D"AG FD EF|"G"G2 G2 z2:|
P:C
|:"C"eG dG cG|c2 "G"B4|=fG eG dG|d2 "C"c4|
Ge d2 c2|c2 "G"B4|G=f e2 d2|d2 "C"c4|
"C"eG dG cG|c2 "G"B4|=fG eG dG|d2 "C"c3B|
"Am"A^G AB cd|"C"e2 G4|"G"GF G^G AB|"C"c2 c2 z2:|

